!!!OTL: 155. Der todte Mueller.
!!!ARE: Europa, Mitteleuropa, Deutschland
!!!SCT: B0155
!!!TXL: @@DE
!!!YEM: Copyright 1995, estate of Helmut Schaffrath.
**kern	**text
*ICvox	*
*Ivox	*
*M6/4	*
*clefG2	*
*k[b-e-a-]	*
*E-:	*
!LO:TX:a:t=Etwas langſam. 	!
{4B-	Die
=1	=1
2e-	Ster-
4g	-ne
(4g	ü-
4f)	.
4e-	-berm
=2	=2
2f	Tha-
4a-	-le
(4a-	ſtehn,
4g)}	.
{4f	das
=3	=3
2g	Mühl-
4b-/	-rad
(4b-/	nur
4a-)	.
4g	man
=4	=4
4g	hö-
4f	-ret.
4r	.
2r}	.
{4b-	Ʒum
=5	=5
2b-	kran-
4g	-ken
2g	Mül-
4b-	-ler
=6	=6
(4b-/	muß
4a-)	.
4g	ich
2f}	gehn,
{4a-	er
=7	=7
(4g	hat
4b-/)	.
4e-	den
(4f	Freund
4a-)	.
4d	be-
=8	=8
4f	-geh-
4e-	-ret.
4r	.
2r}	.
==	==
!!!AGN: Ballade, Romanze
!!!GTL: Balladen und Romanzen
!!!ONB: ESAC (Essen Associative Code) Database: BOEHME
!!!AMT: compound duple
!!!AIN: vox
!!!EED: Helmut Schaffrath
!!!EEV: 1.0
!!Volksmelodie: "Es liegt ein Schloß in Oeſterreich".
!!@@COMMENT:"Text von Juſtinus Kernet, ʒuerſt im Morgenbl. 1821/ (v. 20. Aug. ) Volksmel. untergelegt ſchon
!!bei B. Widmann "Fromm und fröhlich. Geiſtl. und weltl. Volkal. " 1857 und bei Erk, Germania 1868."
!!@@END:
!!!Text: Justinus Kerner
!!!URL-scan: https://archive.org/details/BoehmeVtLieder1895/page/n153/mode/2up
!!!ENC: Anna Maria Matuszewska
!!!EEV: 2024/19/06
*-	*-
